X: 1
T: Terrebonne
O: trad. Qu\'ebec
S: handout at Roaring Jelly practice, Jan 2017
R: reel
Z: 2017 John Chambers <jc:trillian.mit.edu>
M: C|
L: 1/16
K: A
"A"[|] (3ABc |\
"D"d2cd BAFA | d2cd "A7"eABc | "D"d2cd "G"B2 \
[1,3 AF | "A7"GBAG "D"FDD2 :|[2,4 Ad | "A7"fdec d2 :|
"B"|: z2 |\
"D"f3a "(G)"gfed | "D"fdfd "A7"Acde | "D"fdfa "(G)"gfed |\
[1,3 "A7"cdea "D"fdd2 :|[2,4 "A7"cABc "D"d2 :|
